packages/astro-components-stencil/src/icons/antenna-off.svg

<svg width="24" height="24" viewBox="0 0 24 24" fill="none" xmlns="http://www.w3.org/2000/svg">
<path fill-rule="evenodd" clip-rule="evenodd" d="M5.53115 17.8387L6.58945 18.8268L8.92522 18.602L9.83101 20.4262C9.89964 20.5644 9.93535 20.7167 9.93535 20.871C9.93535 21.3838 9.54931 21.8065 9.05197 21.8642L8.93535 21.871H4.20497C3.9626 21.871 3.72849 21.7829 3.54616 21.6233C3.16263 21.2874 3.09746 20.7232 3.37588 20.3117L3.45266 20.2122L5.53115 17.8387ZM7.09757 10.0443C7.33377 10.0636 7.55543 10.1662 7.72301 10.3338L10.042 12.653L12 12L11.347 13.958L13.2146 15.8254C13.6051 16.2159 13.6051 16.8491 13.2146 17.2396C13.047 17.4072 12.8253 17.5098 12.5891 17.5291L7.30432 17.9622C7.01163 17.9862 6.7232 17.8803 6.51554 17.6726L5.87575 17.0328C5.66809 16.8252 5.56221 16.5367 5.58619 16.2441L6.01924 10.9592C6.06434 10.4088 6.54713 9.99915 7.09757 10.0443Z" fill="black"/>
</svg>

<svg xmlns="http://www.w3.org/2000/svg" viewBox="0 0 24 24"><g xmlns="http://www.w3.org/2000/svg" id="antenna-off">
            <path d="M5.531 17.839l1.058.988 2.336-.225.906 1.824a1 1 0 01-.779 1.438l-.117.007h-4.73a1 1 0 01-.83-1.56l.078-.099L5.53 17.84zm1.567-7.795a1 1 0 01.625.29l2.319 2.319L12 12l-.653 1.958 1.868 1.867a1 1 0 01-.626 1.704l-5.285.433a1 1 0 01-.788-.29l-.64-.64a1 1 0 01-.29-.788l.433-5.285a1 1 0 011.079-.915z"/>
        </g></svg>
